icons/desktop/16/svg/synced-tabs-16.svg

<svg width="16" height="16" viewBox="0 0 16 16" fill="none" xmlns="http://www.w3.org/2000/svg">
<path fill-rule="evenodd" clip-rule="evenodd" d="M12.5 5.99877C13.2166 5.99877 13.877 6.0474 14.4688 6.12084L14.6318 6.14916C15.4312 6.32604 15.9998 7.03771 16 7.86107V14.1384C16 15.0434 15.3122 15.7743 14.4443 15.8806C13.7254 15.9688 13.0706 15.9988 12.5 15.9988C11.9626 15.9988 11.4571 15.972 10.9883 15.9275L10.5312 15.8767C9.64733 15.766 9 15.0148 9 14.1365V7.85912C9.00022 6.95427 9.68792 6.22317 10.5557 6.11693C11.2745 6.02878 11.9294 5.99877 12.5 5.99877ZM12.5 7.49877C12.1121 7.49877 11.6815 7.514 11.2158 7.55541L10.7383 7.60619C10.5925 7.62402 10.5002 7.74239 10.5 7.85912V13.4997H14.5V7.86107C14.4998 7.74439 14.427 7.65063 14.3271 7.61889L14.2832 7.60912C13.7471 7.5426 13.1492 7.49877 12.5 7.49877Z" fill="black"/>
<path d="M3.41504 0.264394C6.42589 -0.0845875 9.53467 -0.0854848 12.5615 0.261464C13.9514 0.420449 14.9998 1.59599 15 2.99682V4.49975H13.5V2.99682C13.4998 2.35898 13.0225 1.82271 12.3906 1.75072C9.47676 1.41577 6.4868 1.41864 3.58594 1.75463C2.96709 1.82567 2.50015 2.35806 2.5 2.99389V8.0056C2.5002 8.64236 2.96907 9.17671 3.58984 9.24779C4.87684 9.39779 6.192 9.48275 7.5 9.49975V12.4997H0.75C0.336 12.4997 0 12.1637 0 11.7497C0.00024757 11.336 0.336153 10.9997 0.75 10.9997H7.49023C6.12823 10.9817 4.75699 10.894 3.41699 10.738C2.04014 10.579 1.0002 9.40342 1 8.0056V2.99389C1.00016 1.59602 2.03914 0.422382 3.41504 0.264394Z" fill="black"/>
</svg>

<!-- This Source Code Form is subject to the terms of the Mozilla Public
   - License, v. 2.0. If a copy of the MPL was not distributed with this
   - file, You can obtain one at http://mozilla.org/MPL/2.0/. -->
<svg xmlns="http://www.w3.org/2000/svg" width="16" height="16" fill="context-fill" fill-opacity="context-fill-opacity" viewBox="0 0 16 16">
    <path fill-rule="evenodd" d="M12.5 5.999c.717 0 1.377.048 1.969.122l.163.028A1.75 1.75 0 0 1 16 7.861v6.277c0 .905-.688 1.636-1.556 1.743a16 16 0 0 1-3.456.046l-.457-.05A1.75 1.75 0 0 1 9 14.137V7.859c0-.905.688-1.636 1.556-1.742a16 16 0 0 1 1.944-.118m0 1.5c-.388 0-.819.015-1.284.056l-.478.051a.264.264 0 0 0-.238.253v5.64h4V7.862a.25.25 0 0 0-.173-.242l-.044-.01A15 15 0 0 0 12.5 7.5" clip-rule="evenodd" />
    <path d="M3.415.264a40.2 40.2 0 0 1 9.147-.003A2.75 2.75 0 0 1 15 2.997V4.5h-1.5V2.997c0-.638-.477-1.174-1.11-1.246a38.6 38.6 0 0 0-8.804.004A1.24 1.24 0 0 0 2.5 2.994v5.012c0 .636.47 1.17 1.09 1.242 1.287.15 2.602.235 3.91.252v3H.75a.75.75 0 0 1 0-1.5h6.74a40 40 0 0 1-4.073-.262A2.743 2.743 0 0 1 1 8.006V2.994A2.74 2.74 0 0 1 3.415.264" />
</svg>
